X:1
T:The Streets of Cairo
M:C
L:1/8
K:G
EF | G2 F2 E2 EF | GBFG E2 EF | G2 F2 E2 EF | GBFG E2 GA | BBBc BAFG |
AAAB AGEF | G2 F2 E2 EF | GB FG E2 |]
